lib/logo_updates/nrk-logo-nrk-folkemusikk-title-below.svg

<svg width="336" height="104" viewBox="0 0 336 104" fill="none" xmlns="http://www.w3.org/2000/svg">
<path d="M0 43V1.00381H13.7802V43H0ZM32.5283 7.68773L40.4532 43H25.3721L15.9092 1.00381H24.3676C26.3072 0.978642 28.1892 1.66237 29.6607 2.92636C31.1347 4.13734 32.1473 5.81844 32.5283 7.68773ZM42.5233 43V1.00381H56.3035V43H42.5233ZM66.7116 16.9743C65.2267 16.9888 63.7656 16.6003 62.4839 15.8504C61.2193 15.1194 60.1688 14.0689 59.438 12.8041C58.6872 11.5222 58.2986 10.0607 58.3134 8.57511C58.2964 7.09861 58.6853 5.64583 59.438 4.3755C60.1766 3.12447 61.2259 2.08533 62.4839 1.35882C63.766 0.609758 65.2269 0.221301 66.7116 0.234844C68.1877 0.218947 69.6399 0.607751 70.9108 1.35882C72.1562 2.09169 73.1943 3.12996 73.9271 4.3755C74.6789 5.64618 75.0677 7.09873 75.0517 8.57511C75.0655 10.0605 74.6769 11.5218 73.9271 12.8041C73.202 14.0633 72.1627 15.113 70.9108 15.8504C69.6398 16.6029 68.1866 16.9918 66.7097 16.9743H66.7116ZM77.1807 43V1.00381H90.9621V43H77.1807ZM108.408 23.9538C108.447 23.9946 108.742 24.4776 109.295 25.403C109.848 26.3283 110.567 27.5114 111.454 28.952C112.341 30.392 113.277 31.9199 114.262 33.536C115.247 35.1521 116.174 36.6803 117.043 38.1202C117.908 39.5602 118.894 41.1867 120 43H104.859C103.912 41.4621 103.055 40.0721 102.286 38.83C101.517 37.5878 100.7 36.2471 99.8334 34.8077C98.9653 33.3698 98.1071 31.9699 97.2587 30.6081C96.4103 29.2464 95.6813 28.0536 95.0714 27.0297C94.459 26.0051 94.0348 25.3149 93.7989 24.9594C93.2139 24.0771 92.8677 23.058 92.7944 22.0019C92.853 20.9883 93.1791 20.0084 93.7397 19.1619C93.9762 18.7676 94.41 18.0675 95.0409 17.062C95.6717 16.0564 96.411 14.8637 97.2587 13.4835C98.1064 12.1034 98.9647 10.6936 99.8334 9.25431C100.702 7.81501 101.519 6.46432 102.286 5.20247C103.056 3.94193 103.914 2.54205 104.859 1.00285H120L108.289 20.1082C107.926 20.6755 107.722 21.3292 107.697 22.0019C107.736 22.7081 107.983 23.3871 108.406 23.9538H108.408Z" fill="white"/>
<path d="M0 103.005H6.21085V85.6742H22.063L22.7138 80.5291H6.21085V66.2137H27.6825V61.0084H0V103.005Z" fill="white"/>
<path d="M52.3188 74.083C49.8543 72.7733 47.0937 72.1212 44.3038 72.19C41.488 72.1258 38.7044 72.7987 36.2288 74.1419C33.9442 75.4211 32.0759 77.3309 30.8471 79.643C29.5114 82.2371 28.8498 85.1256 28.9236 88.0424C28.8484 90.9363 29.4671 93.8062 30.7277 96.4122C31.8607 98.6868 33.6682 100.556 35.9034 101.765C38.3095 103.026 40.9955 103.657 43.7112 103.599C46.5543 103.655 49.3645 102.984 51.8749 101.648C54.2178 100.369 56.1392 98.4367 57.4056 96.0868C58.7797 93.4619 59.4617 90.5301 59.3872 87.5682C59.455 84.7474 58.8246 81.9536 57.5524 79.4351C56.3738 77.1739 54.553 75.3119 52.3188 74.083ZM51.9628 93.8982C51.2995 95.4359 50.1728 96.7283 48.74 97.5951C47.3013 98.4198 45.666 98.8391 44.0079 98.8087C42.382 98.8495 40.7791 98.418 39.3933 97.5665C38.0229 96.6554 36.9525 95.3593 36.3174 93.8412C35.5132 91.8928 35.1306 89.7964 35.1946 87.6896C35.125 85.6395 35.5083 83.5993 36.3174 81.7143C36.9809 80.2329 38.0868 78.9931 39.4831 78.1652C40.9753 77.344 42.6594 76.9356 44.362 76.9822C45.6918 76.9489 47.0131 77.2011 48.2373 77.7216C49.3091 78.2051 50.2441 78.9473 50.9582 79.8815C51.7206 80.8957 52.2731 82.0515 52.5838 83.2817C52.9538 84.7212 53.1328 86.2033 53.1162 87.6896C53.1855 89.8182 52.7921 91.9365 51.9628 93.8982Z" fill="white"/>
<path d="M76.0368 98.6569C75.8306 98.6799 75.6233 98.6904 75.4158 98.6885C74.9705 98.7013 74.5274 98.6203 74.1154 98.4509C73.7575 98.2904 73.4506 98.0347 73.2282 97.7115C72.9713 97.3283 72.7998 96.8942 72.7254 96.4388C72.6184 95.8339 72.5687 95.2202 72.5774 94.606V58.3477L66.5432 59.2351V97.2687C66.5182 98.2656 66.6789 99.2587 67.0174 100.197C67.3004 100.959 67.7677 101.64 68.3777 102.178C68.9844 102.699 69.703 103.074 70.4777 103.273C71.337 103.496 72.222 103.605 73.1098 103.598C73.583 103.598 74.0357 103.578 74.4704 103.54C74.9052 103.501 75.3281 103.441 75.7422 103.361C76.1562 103.281 76.5001 103.204 76.7762 103.126L77.3678 98.4519L76.657 98.57C76.4224 98.6095 76.2152 98.6382 76.0368 98.6569Z" fill="white"/>
<path d="M109.133 72.8385H101.739L91.6171 83.9588H89.4355V58.3477L83.4033 59.2351V103.006H89.4355V88.5145H89.5342L101.619 103.006H109.427L95.0796 86.8386L109.133 72.8385Z" fill="white"/>
<path d="M135.572 76.6538C134.437 75.182 132.938 74.0305 131.224 73.3119C129.32 72.5344 127.277 72.1519 125.221 72.1879C123.149 72.1528 121.093 72.5559 119.187 73.3708C117.454 74.1296 115.909 75.2606 114.662 76.6834C113.377 78.1778 112.411 79.9188 111.822 81.7998C111.148 83.9526 110.819 86.1986 110.847 88.4543C110.763 91.3043 111.361 94.1333 112.591 96.7059C113.715 98.935 115.531 100.74 117.767 101.852C120.39 103.088 123.269 103.685 126.167 103.597C127.561 103.608 128.955 103.519 130.336 103.331C131.491 103.164 132.63 102.897 133.738 102.532C134.837 102.163 135.905 101.708 136.932 101.172L137.346 96.6171C136.596 96.8931 135.837 97.1692 135.068 97.4452C134.299 97.7213 133.501 97.9677 132.673 98.1846C131.838 98.4033 130.988 98.5612 130.13 98.6568C129.266 98.7564 128.397 98.806 127.527 98.8056C125.974 98.8307 124.424 98.6618 122.913 98.3028C121.694 98.0107 120.566 97.4214 119.631 96.5874C118.686 95.687 117.993 94.5553 117.62 93.3045C117.233 92.0378 117.016 90.7254 116.975 89.4016H138.351C138.642 86.9546 138.533 84.4766 138.026 82.0651C137.61 80.1048 136.772 78.2584 135.572 76.6538ZM120.666 78.0743C122.054 77.2306 123.657 76.809 125.28 76.8607C126.904 76.7795 128.509 77.2485 129.834 78.1917C131.012 79.1319 131.852 80.4294 132.229 81.8886C132.525 82.9676 132.67 84.0822 132.661 85.2009H117.105C117.215 84.0215 117.467 82.8596 117.855 81.7406C118.361 80.2412 119.349 78.9518 120.666 78.0743Z" fill="white"/>
<path d="M186.618 73.4301C185.005 72.5541 183.188 72.1253 181.353 72.1879C179.761 72.1833 178.181 72.4535 176.681 72.9865C175.157 73.5322 173.722 74.2996 172.423 75.2639C171.686 75.8099 170.985 76.4024 170.324 77.0382C169.717 75.5573 168.648 74.3124 167.276 73.4893C165.643 72.6089 163.806 72.1801 161.952 72.2471C160.37 72.2478 158.8 72.5179 157.309 73.0457C155.778 73.5843 154.333 74.3412 153.019 75.2932C152.595 75.5998 152.183 75.9321 151.777 76.2791V72.25L145.744 73.1374V103.008H151.777V80.5105C152.488 80.0449 153.229 79.627 153.995 79.2595C154.934 78.8162 155.915 78.4694 156.923 78.2243C157.853 77.9951 158.806 77.8759 159.763 77.8693C160.642 77.8427 161.517 77.9941 162.336 78.3141C163.014 78.6007 163.613 79.0466 164.081 79.6142C164.595 80.2739 164.949 81.0431 165.117 81.862C165.347 82.9208 165.456 84.0023 165.442 85.0857V103.008H171.475V83.8426C171.479 82.7111 171.403 81.5809 171.247 80.4602C171.931 80.0109 172.639 79.5998 173.368 79.2289C174.29 78.7648 175.262 78.4076 176.265 78.1641C177.215 77.932 178.188 77.8128 179.165 77.8091C180.034 77.7877 180.898 77.9386 181.708 78.2529C182.398 78.5339 183.008 78.9811 183.483 79.555C183.997 80.2136 184.351 80.9828 184.517 81.8018C184.748 82.8602 184.857 83.9414 184.843 85.0246V103.007H190.877V83.7834C190.952 81.5461 190.59 79.3156 189.812 77.2168C189.199 75.6341 188.074 74.3014 186.618 73.4301Z" fill="white"/>
<path d="M219.742 95.6431C219.295 95.9142 218.855 96.1666 218.41 96.3805C217.707 96.7244 216.987 97.0307 216.252 97.2983C215.549 97.5522 214.827 97.7501 214.092 97.8899C213.342 98.0303 212.579 98.0996 211.816 98.0969C210.565 98.1448 209.322 97.87 208.208 97.2992C207.25 96.7549 206.509 95.8985 206.108 94.8731C205.62 93.6005 205.388 92.2438 205.427 90.8814V72.2491L199.393 73.1362V91.9452C199.32 94.1899 199.713 96.4254 200.547 98.5108C201.233 100.156 202.465 101.514 204.037 102.356C205.789 103.229 207.73 103.656 209.686 103.599C210.922 103.607 212.154 103.458 213.353 103.155C214.497 102.859 215.6 102.422 216.637 101.854C217.703 101.268 218.712 100.584 219.652 99.8122C219.826 99.6712 219.997 99.5057 220.17 99.3568L221.042 103.004H225.715L225.774 72.2462L219.742 73.1334V95.6431Z" fill="white"/>
<path d="M253.692 89.4017C253.088 88.7589 252.39 88.2104 251.622 87.7742C250.828 87.3196 249.997 86.9338 249.137 86.6209C248.507 86.4237 247.886 86.2165 247.275 85.9997C246.663 85.7828 246.052 85.5855 245.44 85.4081C244.829 85.2306 244.237 85.0435 243.666 84.8463C243.13 84.664 242.606 84.4465 242.099 84.1955C241.612 83.9372 241.147 83.6406 240.708 83.3083C240.303 83.0029 239.962 82.6212 239.703 82.1846C239.442 81.7362 239.309 81.2247 239.318 80.7058C239.302 80.1355 239.446 79.5721 239.733 79.079C240.042 78.5948 240.469 78.1978 240.975 77.9257C241.594 77.5862 242.263 77.3464 242.957 77.2149C243.824 77.0493 244.706 76.9704 245.589 76.9793C246.022 76.9793 246.496 76.9998 247.008 77.0383C247.521 77.0767 248.082 77.1479 248.694 77.2465C249.306 77.3451 249.916 77.4732 250.527 77.6289C251.138 77.7847 251.759 77.9651 252.391 78.1623C252.976 78.3423 253.549 78.5598 254.106 78.8138L254.521 74.0218C253.771 73.707 253.031 73.4305 252.303 73.1926C251.574 72.9571 250.834 72.7595 250.084 72.601C249.353 72.4464 248.612 72.3379 247.866 72.2759C247.136 72.2167 246.416 72.187 245.707 72.187C244.073 72.1703 242.444 72.3592 240.857 72.749C239.5 73.0794 238.21 73.6395 237.042 74.4052C235.983 75.1055 235.118 76.0618 234.528 77.1853C233.91 78.4235 233.605 79.7946 233.64 81.178C233.622 82.1744 233.782 83.1661 234.114 84.106C234.394 84.8948 234.815 85.6263 235.356 86.2649C235.882 86.8687 236.489 87.3963 237.16 87.8325C237.858 88.2912 238.601 88.6776 239.378 88.9858C239.81 89.1442 240.264 89.3016 240.739 89.4581C241.213 89.6145 241.676 89.7629 242.129 89.9036C242.581 90.0416 243.024 90.1792 243.46 90.3166C243.892 90.4556 244.317 90.5928 244.731 90.7308C245.145 90.8688 245.55 90.9969 245.944 91.1152C246.473 91.3026 246.987 91.53 247.482 91.7953C247.916 92.0249 248.322 92.3028 248.694 92.6235C249.021 92.9095 249.283 93.2626 249.462 93.6587C249.644 94.0679 249.735 94.5113 249.729 94.9589C249.75 95.3966 249.673 95.8337 249.505 96.2381C249.336 96.6425 249.079 97.0042 248.753 97.2974C248.021 97.9087 247.146 98.3254 246.21 98.509C245.113 98.7511 243.992 98.8703 242.868 98.864C242.166 98.8597 241.464 98.8101 240.768 98.716C239.999 98.6174 239.191 98.4794 238.343 98.302C237.495 98.1245 236.627 97.9077 235.739 97.6514C234.853 97.3951 233.957 97.1094 233.049 96.7946L233.286 101.822C234.31 102.177 235.247 102.463 236.095 102.68C236.944 102.897 237.752 103.084 238.52 103.242C239.261 103.396 240.013 103.494 240.768 103.538C241.497 103.577 242.236 103.596 242.986 103.596C244.636 103.605 246.282 103.435 247.896 103.092C249.316 102.804 250.677 102.274 251.918 101.526C253.036 100.842 253.963 99.8857 254.609 98.7456C255.286 97.4944 255.623 96.0873 255.584 94.6652C255.609 93.6274 255.439 92.594 255.082 91.6189C254.765 90.798 254.293 90.0454 253.692 89.4017Z" fill="white"/>
<path d="M267.914 59.8551C267.301 59.4798 266.594 59.285 265.874 59.2931C265.146 59.2876 264.43 59.482 263.804 59.8551C263.188 60.2168 262.67 60.7246 262.297 61.3338C261.921 61.9477 261.727 62.655 261.735 63.3746C261.729 64.1032 261.923 64.8193 262.297 65.4447C262.658 66.0636 263.179 66.5743 263.804 66.9235C264.436 67.2781 265.15 67.4617 265.874 67.4559C266.59 67.4641 267.294 67.2803 267.914 66.9235C268.523 66.5718 269.025 66.0605 269.364 65.4447C269.719 64.8128 269.903 64.0993 269.897 63.3746C269.905 62.659 269.721 61.9543 269.364 61.3338C269.012 60.7274 268.514 60.219 267.914 59.8551Z" fill="white"/>
<path d="M262.742 103.005H268.776V72.2472L262.742 73.1343V103.005Z" fill="white"/>
<path d="M303.734 72.8385H296.34L286.218 83.9588H284.037V58.3477L278.003 59.2351V103.006H284.037V88.5145H284.135L296.221 103.006H304.029L289.681 86.8386L303.734 72.8385Z" fill="white"/>
<path d="M327.276 103.005H335.084L320.736 86.8377L334.788 72.8385H327.394L317.272 83.9588H315.091V58.3477L309.057 59.2351V103.006H315.091V88.5145H315.189L327.276 103.005Z" fill="white"/>
</svg>

<svg xmlns="http://www.w3.org/2000/svg" viewBox="0 0 336 104"><path fill="#fff" d="M0 43V1.004h13.78V43H0ZM32.528 7.688 40.453 43h-15.08L15.908 1.004h8.459a7.965 7.965 0 0 1 5.293 1.922 8.31 8.31 0 0 1 2.867 4.762ZM42.523 43V1.004h13.78V43h-13.78Zm24.189-26.026a8.213 8.213 0 0 1-4.228-1.124 8.336 8.336 0 0 1-3.046-3.046 8.206 8.206 0 0 1-1.125-4.229 8.056 8.056 0 0 1 1.125-4.2 8.437 8.437 0 0 1 3.046-3.016A8.232 8.232 0 0 1 66.712.235a8.083 8.083 0 0 1 4.199 1.124 8.503 8.503 0 0 1 3.016 3.016 8.075 8.075 0 0 1 1.125 4.2 8.226 8.226 0 0 1-1.125 4.23 8.4 8.4 0 0 1-3.016 3.045 8.059 8.059 0 0 1-4.201 1.124h.002ZM77.18 43V1.004h13.781V43H77.181Zm31.227-19.046c.039.04.334.524.887 1.449.553.925 1.272 2.108 2.159 3.549a1143.28 1143.28 0 0 1 5.589 9.168A854.89 854.89 0 0 0 120 43h-15.141c-.947-1.538-1.804-2.928-2.573-4.17a382.214 382.214 0 0 1-2.453-4.022 351.934 351.934 0 0 0-2.574-4.2 213.445 213.445 0 0 1-2.188-3.578 62.753 62.753 0 0 0-1.272-2.07 6.119 6.119 0 0 1-1.005-2.958 5.744 5.744 0 0 1 .946-2.84c.236-.394.67-1.095 1.3-2.1.632-1.006 1.371-2.198 2.219-3.579.847-1.38 1.706-2.79 2.574-4.229.869-1.439 1.686-2.79 2.453-4.052.77-1.26 1.628-2.66 2.573-4.2H120l-11.711 19.106a3.773 3.773 0 0 0-.592 1.894c.039.706.286 1.385.709 1.952h.002ZM0 103.005h6.21v-17.33h15.853l.65-5.146H6.212V66.214h21.471v-5.206H0v41.997ZM52.319 74.083a16.227 16.227 0 0 0-8.015-1.893 16.16 16.16 0 0 0-8.075 1.952 13.643 13.643 0 0 0-5.382 5.501 17.388 17.388 0 0 0-1.923 8.4 18.139 18.139 0 0 0 1.804 8.37 12.342 12.342 0 0 0 5.175 5.352 16.08 16.08 0 0 0 7.808 1.834 16.677 16.677 0 0 0 8.164-1.951 13.789 13.789 0 0 0 5.53-5.561 17.423 17.423 0 0 0 1.982-8.519 17.126 17.126 0 0 0-1.835-8.133 12.928 12.928 0 0 0-5.233-5.352Zm-.356 19.815a8.045 8.045 0 0 1-3.223 3.697 9.177 9.177 0 0 1-4.732 1.214 8.412 8.412 0 0 1-4.615-1.242 8.338 8.338 0 0 1-3.076-3.726 14.935 14.935 0 0 1-1.122-6.151 13.95 13.95 0 0 1 1.122-5.976 7.863 7.863 0 0 1 3.166-3.549 9.576 9.576 0 0 1 4.879-1.183 9.308 9.308 0 0 1 3.875.74 7.1 7.1 0 0 1 2.721 2.16 9.55 9.55 0 0 1 1.626 3.4c.37 1.44.549 2.921.532 4.408a14.715 14.715 0 0 1-1.153 6.208ZM76.037 98.657a5.174 5.174 0 0 1-.621.032 3.18 3.18 0 0 1-1.3-.238 2.14 2.14 0 0 1-.888-.74 3.217 3.217 0 0 1-.503-1.272 9.731 9.731 0 0 1-.148-1.833V58.348l-6.034.887V97.27c-.025.997.136 1.99.474 2.928a4.93 4.93 0 0 0 1.36 1.981 5.216 5.216 0 0 0 2.1 1.095c.86.223 1.745.332 2.633.325.473 0 .926-.02 1.36-.058.435-.039.858-.099 1.272-.179.414-.08.758-.157 1.034-.235l.592-4.674-.711.118c-.235.04-.442.068-.62.087ZM109.133 72.838h-7.394l-10.122 11.12h-2.181v-25.61l-6.033.887v43.771h6.032V88.514h.1l12.084 14.492h7.808L95.08 86.839l14.053-14ZM135.572 76.654a10.73 10.73 0 0 0-4.348-3.342 15.179 15.179 0 0 0-6.003-1.124 14.714 14.714 0 0 0-6.034 1.183 12.894 12.894 0 0 0-4.525 3.312 14.486 14.486 0 0 0-2.84 5.117 21.384 21.384 0 0 0-.975 6.654 17.907 17.907 0 0 0 1.744 8.252 11.562 11.562 0 0 0 5.176 5.146 18.397 18.397 0 0 0 8.4 1.745 29.207 29.207 0 0 0 4.169-.266 20.041 20.041 0 0 0 3.402-.799 22.123 22.123 0 0 0 3.194-1.36l.414-4.555c-.75.276-1.509.552-2.278.828-.769.276-1.567.523-2.395.74a17.83 17.83 0 0 1-2.543.472c-.864.1-1.733.149-2.603.149a18.656 18.656 0 0 1-4.614-.503 7.587 7.587 0 0 1-3.282-1.716 7.491 7.491 0 0 1-2.011-3.282 14.94 14.94 0 0 1-.645-3.903h21.376a22.655 22.655 0 0 0-.325-7.337 13.83 13.83 0 0 0-2.454-5.411Zm-14.906 1.42a8.37 8.37 0 0 1 4.614-1.213 7.231 7.231 0 0 1 4.554 1.33 6.955 6.955 0 0 1 2.395 3.698 12.15 12.15 0 0 1 .432 3.312h-15.556c.11-1.18.362-2.341.75-3.46a7.153 7.153 0 0 1 2.811-3.667ZM186.618 73.43a10.294 10.294 0 0 0-5.265-1.242 13.832 13.832 0 0 0-4.672.799 16.444 16.444 0 0 0-4.258 2.277 21.426 21.426 0 0 0-2.099 1.774 7.42 7.42 0 0 0-3.048-3.549 10.423 10.423 0 0 0-5.324-1.242c-1.582 0-3.152.27-4.643.799a16.833 16.833 0 0 0-4.29 2.247c-.424.307-.836.64-1.242.986V72.25l-6.033.887v29.871h6.033V80.51a19.24 19.24 0 0 1 2.218-1.25c.939-.444 1.92-.79 2.928-1.036a12.22 12.22 0 0 1 2.84-.355 6.527 6.527 0 0 1 2.573.445 4.565 4.565 0 0 1 1.745 1.3c.514.66.868 1.43 1.036 2.248.23 1.059.339 2.14.325 3.224v17.922h6.033V83.843a23.919 23.919 0 0 0-.228-3.383c.684-.45 1.392-.86 2.121-1.231a13.557 13.557 0 0 1 2.897-1.065c.95-.232 1.923-.351 2.9-.355a6.58 6.58 0 0 1 2.543.444c.69.28 1.3.728 1.775 1.302a5.393 5.393 0 0 1 1.034 2.247c.231 1.058.34 2.14.326 3.223v17.982h6.034V83.783a17.232 17.232 0 0 0-1.065-6.566 7.623 7.623 0 0 0-3.194-3.787ZM219.742 95.643a15.75 15.75 0 0 1-1.332.737c-.703.344-1.423.65-2.158.918a14.13 14.13 0 0 1-2.16.592c-.75.14-1.513.21-2.276.207a7.301 7.301 0 0 1-3.608-.798 4.801 4.801 0 0 1-2.1-2.426 10.324 10.324 0 0 1-.681-3.992V72.25l-6.034.887v18.81c-.073 2.244.32 4.48 1.154 6.565a7.74 7.74 0 0 0 3.49 3.845c1.752.873 3.693 1.3 5.649 1.243a14.58 14.58 0 0 0 3.667-.444 14.284 14.284 0 0 0 3.284-1.301 19.73 19.73 0 0 0 3.015-2.042c.174-.14.345-.306.518-.455l.872 3.647h4.673l.059-30.758-6.032.887v22.51ZM253.692 89.402a8.811 8.811 0 0 0-2.07-1.628 16.034 16.034 0 0 0-2.485-1.153 52.2 52.2 0 0 1-1.862-.621 32.965 32.965 0 0 0-1.835-.592 37.405 37.405 0 0 1-1.774-.562c-.536-.182-1.06-.4-1.567-.65a10.304 10.304 0 0 1-1.391-.888 3.896 3.896 0 0 1-1.005-1.123 2.842 2.842 0 0 1-.385-1.48 3.064 3.064 0 0 1 .415-1.626 3.362 3.362 0 0 1 1.242-1.153 6.725 6.725 0 0 1 1.982-.711 13.316 13.316 0 0 1 2.632-.236 19.081 19.081 0 0 1 3.105.267c.612.1 1.222.227 1.833.383s1.232.336 1.864.533c.585.18 1.158.398 1.715.652l.415-4.792a29.06 29.06 0 0 0-2.218-.83 22.042 22.042 0 0 0-2.219-.591 17.876 17.876 0 0 0-2.218-.325c-.73-.06-1.45-.089-2.159-.089a19.495 19.495 0 0 0-4.85.562c-1.357.33-2.647.89-3.815 1.656a7.532 7.532 0 0 0-2.514 2.78 8.462 8.462 0 0 0-.888 3.993 8.338 8.338 0 0 0 .474 2.928c.28.789.701 1.52 1.242 2.159a8.633 8.633 0 0 0 1.804 1.567c.698.46 1.441.846 2.218 1.154.432.158.886.316 1.361.472.474.157.937.305 1.39.446.452.138.895.275 1.331.413.432.139.857.276 1.271.414.414.138.819.266 1.213.384.529.188 1.043.415 1.538.68.434.23.84.508 1.212.829.327.285.589.639.768 1.035.182.409.273.852.267 1.3a2.96 2.96 0 0 1-.976 2.338 5.67 5.67 0 0 1-2.543 1.212 15.115 15.115 0 0 1-3.342.355 16.431 16.431 0 0 1-2.1-.148 31.322 31.322 0 0 1-2.425-.414 35.976 35.976 0 0 1-2.604-.65 54.152 54.152 0 0 1-2.69-.857l.237 5.027c1.024.355 1.961.641 2.809.858.849.217 1.657.404 2.425.562.741.154 1.493.252 2.248.296.729.039 1.468.058 2.218.058 1.65.009 3.296-.161 4.91-.504a12.673 12.673 0 0 0 4.022-1.566 7.727 7.727 0 0 0 2.691-2.78 8.108 8.108 0 0 0 .975-4.08 8.28 8.28 0 0 0-.502-3.047 6.882 6.882 0 0 0-1.39-2.217ZM267.914 59.855a3.824 3.824 0 0 0-2.04-.562 3.985 3.985 0 0 0-2.07.562 4.349 4.349 0 0 0-1.507 1.479 3.825 3.825 0 0 0-.562 2.04 3.969 3.969 0 0 0 .562 2.07c.361.62.882 1.13 1.507 1.48a4.164 4.164 0 0 0 2.07.532 3.997 3.997 0 0 0 2.04-.532 3.856 3.856 0 0 0 1.45-1.48 4.156 4.156 0 0 0 .533-2.07 4.002 4.002 0 0 0-.533-2.04 4.187 4.187 0 0 0-1.45-1.479ZM262.742 103.005h6.034V72.247l-6.034.887v29.871ZM303.734 72.838h-7.394l-10.122 11.12h-2.181v-25.61l-6.034.887v43.771h6.034V88.514h.098l12.086 14.492h7.808l-14.348-16.167 14.053-14ZM327.276 103.005h7.808l-14.348-16.167 14.052-14h-7.394l-10.122 11.12h-2.181v-25.61l-6.034.887v43.771h6.034V88.514h.098l12.087 14.491Z"/></svg>
